X: 4729
T:Ashokan Farewell (part 3)
M:3/4
C: Jay Ungar, 1983
K:D
A,6|D6|D6|G,6|A,6|B,4B,2|G,4A2|A6|A,6|A6|D6|G,6|D6|A,6|B,6|A,6|D6|
F6|D6|D4C2|D3CB,2|F4D2|C6|A,2C2E2|D6|A6|D4G2|F2D2A,2|D6|B,6|E6|D4||
||D2|D4E2|A,4F2|D4B,2|G,4E2|D4DC|B,4D2|D4D2|A,4A2|D4A,2|=C4C2|B,4B,2|G,4E2|
D2F2A2|A,4DC|B,3B,A,2|A,6|D6|=C6|B,6|A,4B,2|D3CB,A,|G,4B,2|C4A,2|C2E2A,2|D6|
A6|D3EF2|F2D2A,2|D4DC|B,4B,A,|A,B, CD E3|D4||
